!!!!SEGMENT: pl-kk--kk-i-475--006_studzinski-karol--msza-3cia-o-salutaris.krn
!!!cenid: 18xx:1382
!!!COM: Studziński, Karol
!!!COM-rismID: pe30040593
!!!CDT: 1828/01/24-1883/03/16
!!!CNT: Polish
!!!OPR: Msza 3cia
!!!OTL: O salutaris
!!!OMV: 006
!!!PDT:
!!!AGN: Sacred; Mass
!!!SMS-siglum: PL-Kk
!!!SMS-shelfmark: Kk.I.475
!!!SMS-shelfwork: 001-006 M
!!!SMS-variant:
!!!SMS-altvar:
!!!NIFC-rismSourceID: 1001140246
!!!NIFC-islandoraID: pl-kk:14096
!!!URL-pdf-islandora: https://repozytorium.nifc.pl/islandora/object/pl-kk%3A14096/datastream/PDF/view
!!!URL-scan: https://polish.musicsources.pl/pl/lokalizacje/galeria/rekopisy/6082 @EN{Scan on Polish Music Sources Website} @PL{Skany w portalu Dziedzictwo Muzyki Polskiej w otwartym dostępie}
!!!ONB-nifc: UWAGA: części Mszy: 1. Kyrie, 2. Gloria, 3. Graduale, 4. Credo, 5. Sanctus, 6. O salutaris, 7. Agnus Dei
!!!AIN: 1 alto 1 bass 1 soprn 1 tenor
!!!key:
**kern	**kern	**text	**kern	**kern	**text	**dynam
*part4	*part3	*part3	*part2	*part1	*part1	*part1
*staff4	*staff3	*staff3	*staff2	*staff1	*staff1	*
*Ibass	*Itenor	*	*Ialto	*Isoprn	*	*
*I"Basso	*I"Tenor.	*	*I"Alt.	*I"Sopran.	*	*
*I'B.	*I'T.	*	*I'A.	*I'S	*	*
*clefF4	*clefGv2	*	*clefG2	*clefG2	*	*
*k[]	*k[]	*	*k[]	*k[]	*	*
*C:	*C:	*	*C:	*C:	*	*
*M4/4	*M4/4	*	*M4/4	*M4/4	*	*
*met(c)	*met(c)	*	*met(c)	*met(c)	*	*
=1	=1	=1	=1	=1	=1	=1
!	!LO:SIC:v:t= partia zapisana w kluczu wiolinowym	!	!	!LO:TX:b:i:t=16	!	!
!	!LO:TX:rj:a:i:t=Andante	!	!	!LO:TX:a:i:t=16	!	!
!	!LO:TX:b:i:t=8	!	!LO:TX:a:i:t=O Salutaris Tacet	!LO:TX:a:i:t=Andante Sopran Solo	!	!
1ryy	00r	.	1ryy	1r	.	.
=2	=2	=2	=2	=2	=2	=2
1ryy	.	.	1ryy	1r	.	.
=3	=3	=3	=3	=3	=3	=3
1ryy	.	.	1ryy	1r	.	.
=4	=4	=4	=4	=4	=4	=4
1ryy	.	.	1ryy	1r	.	.
=5	=5	=5	=5	=5	=5	=5
1ryy	00r	.	1ryy	1r	.	.
=6	=6	=6	=6	=6	=6	=6
1ryy	.	.	1ryy	1r	.	.
=7	=7	=7	=7	=7	=7	=7
1ryy	.	.	1ryy	1r	.	.
=8	=8	=8	=8	=8	=8	=8
1ryy	.	.	1ryy	1r	.	.
=9	=9	=9	=9	=9	=9	=9
!	!LO:TX:a:i:t=Solo	!	!	!	!	!
1ryy	2G/	O	1ryy	1r	.	.
.	4A/	sa-	.	.	.	.
.	4B/	-lu-	.	.	.	.
=10	=10	=10	=10	=10	=10	=10
1ryy	2c\	-ta-	1ryy	1r	.	.
.	2c\	-ris	.	.	.	.
=11	=11	=11	=11	=11	=11	=11
1ryy	2.d\	Ho-	1ryy	1r	.	.
.	4d\	-sti-	.	.	.	.
!	!LO:LB:g=original	!	!	!	!	!
=12	=12	=12	=12	=12	=12	=12
1ryy	2.e\	-a	1ryy	1r	.	.
.	4e\	quae	.	.	.	.
=13	=13	=13	=13	=13	=13	=13
1ryy	(4d\	coe-	1ryy	1r	.	.
.	4c\)	.	.	.	.	.
.	(4A/	-lis	.	.	.	.
.	4c\)	.	.	.	.	.
=14	=14	=14	=14	=14	=14	=14
1ryy	(2c\	pan-	1ryy	1r	.	.
.	4G/)	.	.	.	.	.
.	4A/	-dis	.	.	.	.
=15	=15	=15	=15	=15	=15	=15
1ryy	2.B/	Ho-	1ryy	1r	.	.
.	4A/	-sti-	.	.	.	.
=16	=16	=16	=16	=16	=16	=16
1ryy	2.G/	-um	1ryy	1r	.	.
.	4r	.	.	.	.	.
!	!LO:LB:g=original	!	!	!	!	!
=17	=17	=17	=17	=17	=17	=17
!	!	!	!	!	!	!LO:DY:rj:b:t=po
1ryy	2e\	O	1ryy	2g/	O	p
.	4e-X\	sa-	.	4a/	sa-	.
.	4d\	-lu-	.	4b/	-lu-	.
!!linebreak:original
=18	=18	=18	=18	=18	=18	=18
1ryy	(4c\	-ta-	1ryy	2cc\	-ta-	.
.	4B\)	.	.	.	.	.
.	(4A/	-ris	.	2cc\	-ris	.
.	4G/)	.	.	.	.	.
=19	=19	=19	=19	=19	=19	=19
1ryy	(2F#X/	ho-	1ryy	2.dd\	Hos-	.
.	4G/)	.	.	.	.	.
.	(8A/L	-sti-	.	4dd\	-ti-	.
.	8B/J)	.	.	.	.	.
!	!	!	!	!LO:LB:g=original	!	!
=20	=20	=20	=20	=20	=20	=20
1ryy	4c\	-a	1ryy	2.ee\	-a	.
.	(4c\	quae	.	.	.	.
.	4B\	.	.	.	.	.
.	4c\)	.	.	4ee\	que	.
!	!LO:LB:g=original	!	!	!	!	!
=21	=21	=21	=21	=21	=21	=21
1ryy	2F/	coe-	1ryy	(4dd\	coe-	.
.	.	.	.	4cc\)	-[[lis]]-	.
.	2f\	-lis	.	(4a/	.	.
.	.	.	.	4b/)	-lis	.
=22	=22	=22	=22	=22	=22	=22
1ryy	(4f\	pan-	1ryy	(4cc\	pan-	.
.	4e\)	.	.	16dd\LL	.	.
.	.	.	.	16cc\	.	.
.	.	.	.	16b\	.	.
.	.	.	.	16cc\JJ	.	.
.	(4d\	-dis	.	4dd\)	.	.
.	4c\)	.	.	4ee\	-dis	.
!	!	!	!	!LO:LB:g=original	!	!
=23	=23	=23	=23	=23	=23	=23
1ryy	(2B\	ho-	1ryy	(2g/	hos-	.
.	4d\)	.	.	4b/)	.	.
.	4c\	-sti-	.	4a/	-ti-	.
=24	=24	=24	=24	=24	=24	=24
1ryy	2.B\	-um.	1ryy	2.g/	-um	.
.	4r	.	.	4r	.	.
=25	=25	=25	=25	=25	=25	=25
!	!LO:TX:a:i:t=4	!	!	!	!	!
1ryy	00r	.	1ryy	2g/	Bel-	.
.	.	.	.	4a/	-la	.
.	.	.	.	4g/	pre-	.
=26	=26	=26	=26	=26	=26	=26
1ryy	.	.	1ryy	(4g/	-munt	.
.	.	.	.	4cc\	.	.
.	.	.	.	4ee\)	.	.
.	.	.	.	4gg\	hos-	.
!	!	!	!	!LO:LB:g=original	!	!
=27	=27	=27	=27	=27	=27	=27
1ryy	.	.	1ryy	2.gg\	-ti-	.
.	.	.	.	4ff\	-li-	.
=28	=28	=28	=28	=28	=28	=28
1ryy	.	.	1ryy	2.ee\	-a	.
.	.	.	.	4r	.	.
!!linebreak:original
!	!LO:LB:g=original	!	!	!	!	!
=29	=29	=29	=29	=29	=29	=29
!	!	!	!	!LO:TX:a:i:t=3	!	!
1ryy	2G/	Da	1ryy	0r	.	.
.	8qB/	.	.	.	.	.
.	4A/	ro-	.	.	.	.
.	4G/	-bur	.	.	.	.
=30	=30	=30	=30	=30	=30	=30
1ryy	(4G/	fer	1ryy	.	.	.
.	4c\	.	.	.	.	.
.	4d\)	.	.	.	.	.
.	4e\	au-	.	.	.	.
=31	=31	=31	=31	=31	=31	=31
1ryy	2.e\	-xi-	1ryy	1r	.	.
.	4d\	-li-	.	.	.	.
=32	=32	=32	=32	=32	=32	=32
1ryy	2c\	-um	1ryy	4r	.	.
.	.	.	.	4cc\	Bel-	.
.	2r	.	.	4dd\	-la	.
.	.	.	.	4ee\	pre-	.
!	!LO:LB:g=original	!	!	!	!	!
=33	=33	=33	=33	=33	=33	=33
!	!LO:TX:a:t=1	!	!	!	!	!
1ryy	1r	.	1ryy	(4dd\	-munt	.
.	.	.	.	4cc\)	.	.
.	.	.	.	(4b\	ho-	.
.	.	.	.	4a/)	.	.
!	!	!	!	!LO:LB:g=original	!	!
=34	=34	=34	=34	=34	=34	=34
1ryy	4r	.	1ryy	4.a/	-sti-	.
.	4G/	bel-	.	.	.	.
.	.	.	.	8g/	-li-	.
.	4c\	-la	.	2g/	-um	.
.	4e\	pre-	.	.	.	.
=35	=35	=35	=35	=35	=35	=35
1ryy	(4d\	-munt	1ryy	1f#X/	da	.
.	4c\)	.	.	.	.	.
.	(4B/	ho-	.	.	.	.
.	4A/)	.	.	.	.	.
=36	=36	=36	=36	=36	=36	=36
1ryy	4.A/	-sti-	1ryy	(4g/	ro-	.
.	.	.	.	4ff\)	.	.
.	8G/	-li-	.	.	.	.
.	2G/	-a	.	(4ff\	-bur	.
.	.	.	.	4ee\)	.	.
=37	=37	=37	=37	=37	=37	=37
1ryy	(4G/	da	1ryy	(4ee\	fer	.
.	4f\)	.	.	4dd\)	.	.
.	4f\	ro-	.	(4dd\	au-	.
.	4e\	-bur	.	4cc\)	.	.
!	!LO:LB:g=original	!	!	!LO:LB:g=original	!	!
=38	=38	=38	=38	=38	=38	=38
!	!	!	!	!LO:TX:b:i:t=rall.	!	!
1ryy	4d\	fer	1ryy	(2.b\	-xi-	.
.	4d\	au-	.	.	.	.
.	4c#X\	-xi-	.	.	.	.
.	4cn\	-li-	.	8b\L)	-li-	.
.	.	.	.	8a\J	.	.
!!pagebreak:original
=39	=39	=39	=39	=39	=39	=39
!	!	!	!	!LO:TX:a:i:t=a Tempo	!	!
1ryy	2.B\	-um	1ryy	2.g/	-um	.
.	4r	.	.	4r	.	.
=40	=40	=40	=40	=40	=40	=40
!	!	!	!	!LO:TX:a:i:t=1.	!	!
1ryy	2d\	bel-	1ryy	1r	.	.
.	4A/	-la	.	.	.	.
.	4c\	pre-	.	.	.	.
=41	=41	=41	=41	=41	=41	=41
1ryy	(2B\	-munt	1ryy	2dd\	Bel-	.
.	4G/)	.	.	4b\	-la	.
.	(8A/L	ho-	.	4g/	pre-	.
.	8B/J)	.	.	.	.	.
!	!LO:PB:g=original	!	!	!	!	!
=42	=42	=42	=42	=42	=42	=42
1ryy	(4c\	-sti-	1ryy	(4e/	-munt	.
.	4e\	.	.	4g/)	.	.
.	4d\)	.	.	(4f#X/	hos-	.
.	4c\	-li-	.	4a/)	.	.
!	!	!	!	!LO:LB:g=original	!	!
=43	=43	=43	=43	=43	=43	=43
1ryy	4B/	-um	1ryy	4.g/	-ti-	.
.	4B/	do	.	.	.	.
.	.	.	.	8d/	-li-	.
.	(4A/	ro-	.	2d/	-a	.
.	4G/)	.	.	.	.	.
=44	=44	=44	=44	=44	=44	=44
1ryy	2F#X/	-bur.	1ryy	2dd\	da	.
.	2r	.	.	4a/	ro-	.
.	.	.	.	4cc\	-bur	.
=45	=45	=45	=45	=45	=45	=45
1ryy	(4G/	da	1ryy	(2b\	fer	.
.	4g\)	.	.	.	.	.
.	4f#X\	ro-	.	4dd\)	.	.
.	4fn\	-bur	.	4a/	au-	.
!	!LO:LB:g=original	!	!	!	!	!
=46	=46	=46	=46	=46	=46	=46
1ryy	4e\	fer	1ryy	(4cc\	-xi-	.
.	4e-X\	au-	.	4g/	.	.
.	4d\	-xi-	.	4b\)	.	.
.	4c\	-li-	.	4a/	-li-	.
!	!	!	!	!LO:LB:g=original	!	!
=47	=47	=47	=47	=47	=47	=47
1ryy	4B/	-um	1ryy	4g/	-um	.
.	4G/	da	.	4r	.	.
.	4F#X/	ro-	.	2r	.	.
.	4G/	-bur	.	.	.	.
=48	=48	=48	=48	=48	=48	=48
1ryy	(1e-X\	fer	1ryy	4r	.	.
.	.	.	.	4g/	da	.
.	.	.	.	4f#X/	ro-	.
.	.	.	.	4g/	-bur	.
!!linebreak:original
=49	=49	=49	=49	=49	=49	=49
1ryy	4d\)	.	1ryy	(2b\	fer	.
.	4G/	da	.	.	.	.
.	4A/	ro-	.	4cc\)	.	.
.	4B/	-bur	.	4dd\	au-	.
!	!LO:LB:g=original	!	!	!	!	!
=50	=50	=50	=50	=50	=50	=50
1ryy	(2c\	fer	1ryy	(2ee-X\	-xi-	.
.	4d\)	.	.	4dd\)	.	.
.	4e-X\	au-	.	4cc\	-li-	.
!	!	!	!	!LO:LB:g=original	!	!
=51	=51	=51	=51	=51	=51	=51
1ryy	4.d\	-xi-	1ryy	4b/	-um	.
.	.	.	.	4g/	da	.
.	8B/	-li-	.	.	.	.
.	2G/	-um	.	4f#X/	ro-	.
.	.	.	.	4g/	-bur	.
=52	=52	=52	=52	=52	=52	=52
1ryy	4r	.	1ryy	(1cc\	fer	.
.	4G/	da	.	.	.	.
.	4e-X\	ro-	.	.	.	.
.	4e-\	-bur	.	.	.	.
=53	=53	=53	=53	=53	=53	=53
1ryy	(2d\	fer	1ryy	(2b\)	.	.
.	4B\)	.	.	4dd\)	.	.
.	4G/	au-	.	4g/	au-	.
!	!LO:LB:g=original	!	!	!	!	!
=54	=54	=54	=54	=54	=54	=54
1ryy	(2G/	-xi-	1ryy	(2gg\	-xi-	.
.	4g\)	.	.	4ee-X\)	.	.
.	4e-X\	-li-	.	4cc\	-li-	.
=55	=55	=55	=55	=55	=55	=55
1ryy	2.d;\	-um	1ryy	2.b;\	-um.	.
.	4r	.	.	4r	.	.
!	!	!	!	!LO:LB:g=original	!	!
=56	=56	=56	=56	=56	=56	=56
!	!LO:TX:a:i:t=5	!	!	!LO:TX:a:i:t=4	!	!
1ryy	00r	.	1ryy	00r	.	.
=57	=57	=57	=57	=57	=57	=57
1ryy	.	.	1ryy	.	.	.
=58	=58	=58	=58	=58	=58	=58
1ryy	.	.	1ryy	.	.	.
=59	=59	=59	=59	=59	=59	=59
1ryy	.	.	1ryy	.	.	.
=60	=60	=60	=60	=60	=60	=60
!	!	!	!	!LO:TX:rj:a:i:t=rall	!	!
1ryy	1r	.	1ryy	2g/	O	.
.	.	.	.	4a/	sa-	.
.	.	.	.	4b/	-lu-	.
=61	=61	=61	=61	=61	=61	=61
!	!LO:TX:a:i:t=a tempo	!	!	!	!	!
1ryy	4r	.	1ryy	2cc\	-ta-	.
.	4e\	O	.	.	.	.
.	4d\	sa-	.	2cc\	-ris	.
.	4c\	-lu-	.	.	.	.
!!linebreak:original
=62	=62	=62	=62	=62	=62	=62
1ryy	(2c\	-ta-	1ryy	2.dd\	hos-	.
.	(<4B\)	.	.	.	.	.
.	16qqc/LL	.	.	.	.	.
.	16qqB/JJ)	.	.	.	.	.
.	(8A/L	-ris	.	4dd\	-ti-	.
.	8B/J)	.	.	.	.	.
!	!LO:LB:g=original	!	!	!	!	!
=63	=63	=63	=63	=63	=63	=63
1ryy	4.c\	ho-	1ryy	2.ee\	-a	.
.	8G/	-sti-	.	.	.	.
.	2G/	-a	.	.	.	.
.	.	.	.	4ee\	quae	.
!	!	!	!	!LO:LB:g=original	!	!
=64	=64	=64	=64	=64	=64	=64
1ryy	2A/	quae	1ryy	(4dd\	coe-	.
.	.	.	.	4cc\)	.	.
.	4F/	coe-	.	(4a/	-lis	.
.	4F/	-lis	.	4b/)	.	.
=65	=65	=65	=65	=65	=65	=65
1ryy	(2E/	pan-	1ryy	(4cc\	pan-	.
.	.	.	.	16dd\LL	.	.
.	.	.	.	16cc\	.	.
.	.	.	.	16b\	.	.
.	.	.	.	16cc\JJ	.	.
.	4G/)	.	.	4dd\)	.	.
.	4c\	-dis	.	4ee\	-dis	.
=66	=66	=66	=66	=66	=66	=66
1ryy	(2B\	ho-	1ryy	(2g/	hos-	.
.	4.d\)	.	.	4.b/)	.	.
.	8c\	-sti-	.	8a/	-ti-	.
=67	=67	=67	=67	=67	=67	=67
1ryy	2B\	-um	1ryy	2g/	-um	.
.	2r	.	.	2r	.	.
!	!LO:LB:g=original	!	!	!LO:PB:g=original	!	!
=68	=68	=68	=68	=68	=68	=68
!	!LO:TX:a:i:t=7	!	!	!LO:SIC:v:t=brak dalszej części	!	!
1ryy	00r	.	1ryy	1ryy	.	.
=69	=69	=69	=69	=69	=69	=69
1ryy	.	.	1ryy	1ryy	.	.
=70	=70	=70	=70	=70	=70	=70
1ryy	.	.	1ryy	1ryy	.	.
=71	=71	=71	=71	=71	=71	=71
1ryy	.	.	1ryy	1ryy	.	.
=72	=72	=72	=72	=72	=72	=72
1ryy	0r	.	1ryy	1ryy	.	.
=73	=73	=73	=73	=73	=73	=73
1ryy	.	.	1ryy	1ryy	.	.
=74	=74	=74	=74	=74	=74	=74
1ryy	1r	.	1ryy	1ryy	.	.
=75	=75	=75	=75	=75	=75	=75
1ryy	4r	.	1ryy	1ryy	.	.
.	4c\	bel-	.	.	.	.
.	4B\	-la	.	.	.	.
.	4A/	pre-	.	.	.	.
!!linebreak:original
=76	=76	=76	=76	=76	=76	=76
1ryy	(2G/	-munt	1ryy	1ryy	.	.
.	4A/)	.	.	.	.	.
.	4G/	ho-	.	.	.	.
=77	=77	=77	=77	=77	=77	=77
1ryy	4.G/	-sti-	1ryy	1ryy	.	.
.	8c\	-li-	.	.	.	.
.	2c\	-um	.	.	.	.
=78	=78	=78	=78	=78	=78	=78
1ryy	(2A/	da	1ryy	1ryy	.	.
.	4B-X/	.	.	.	.	.
.	4A/)	.	.	.	.	.
!	!LO:LB:g=original	!	!	!	!	!
=79	=79	=79	=79	=79	=79	=79
1ryy	(4A/	ro-	1ryy	1ryy	.	.
.	4d\)	.	.	.	.	.
.	(4d\	-bur	.	.	.	.
.	4e\)	.	.	.	.	.
=80	=80	=80	=80	=80	=80	=80
1ryy	(4g\	da	1ryy	1ryy	.	.
.	4f\)	.	.	.	.	.
.	4e\	ro-	.	.	.	.
.	4d\	-bur	.	.	.	.
=81	=81	=81	=81	=81	=81	=81
1ryy	(2g\	fer	1ryy	1ryy	.	.
.	4e\)	.	.	.	.	.
.	4f\	au-	.	.	.	.
=82	=82	=82	=82	=82	=82	=82
1ryy	2.d\	-xi-	1ryy	1ryy	.	.
.	4d;\	-li-	.	.	.	.
!	!LO:LB:g=original	!	!	!	!	!
=83	=83	=83	=83	=83	=83	=83
1ryy	2.c\	-um.	1ryy	1ryy	.	.
.	4r	.	.	.	.	.
=84	=84	=84	=84	=84	=84	=84
!	!LO:TX:a:i:t=7	!	!	!	!	!
1ryy	00r	.	1ryy	1ryy	.	.
=85	=85	=85	=85	=85	=85	=85
1ryy	.	.	1ryy	1ryy	.	.
=86	=86	=86	=86	=86	=86	=86
1ryy	.	.	1ryy	1ryy	.	.
=87	=87	=87	=87	=87	=87	=87
1ryy	.	.	1ryy	1ryy	.	.
=88	=88	=88	=88	=88	=88	=88
1ryy	0r	.	1ryy	1ryy	.	.
=89	=89	=89	=89	=89	=89	=89
1ryy	.	.	1ryy	1ryy	.	.
=90	=90	=90	=90	=90	=90	=90
1ryy	1r	.	1ryy	1ryy	.	.
=91	=91	=91	=91	=91	=91	=91
!	!LO:TX:a:i:t=1	!	!	!	!	!
1ryy	1r	.	1ryy	1ryy	.	.
==	==	==	==	==	==	==
*-	*-	*-	*-	*-	*-	*-
!!!system-decoration: [(s1,s2,s3,s4)]
!!!EED: Leszek Kubiak
!!!EEV: 2021-01-15
!!!ENC: Berenika Jozajtis
!!!END: 2021-01-09
